X: 96
T: Pan nasz, Bóg nasz panuje!
C: Mikołaj Gomółka
%%abc-version 2.0
%%abcx-abcm2ps-target-version 5.9.1 (29 Sep 2008)
%%abc-creator hum2abc beta
%%abcx-conversion-date 2021/10/04 07:59:09
%%abc-edited-by Anna Matuszewska
%%abcx-initial-encoding-date 2020-02-17
%%humdrum-veritas 324279363
%%humdrum-veritas-data 568272274
%%linebreak <none>
%%barnumbers 0
L: 1/4
M: C|
N: Derived from pl-wn--sd-xvi-qu-273--097_gomolka-mikolaj--pan-nasz-bog-nasz-panuje.krn
%%staves [1 2 3 4]
V: 1 clef=treble
V: 2
V: 3 clef=alto
V: 4
K: F
[V:1] f2>e2d2c2 | 
[V:2] c2>c2B2A2 | 
[V:3] A2>G2F2F2 | 
[V:4] F,2F,2B,2F,2 [|] 
[V:1] B2AGA4 | 
[V:2] d2cBABc2 | 
[V:3] F2E2F2F3 | 
[V:4] B,2C2F,4 [|] 
[V:1] f2>e2d2c2 | 
[V:2] F2F2G2G2 | 
[V:3] EDC_B,2C2 | 
[V:4] D,2>D,2G,2E,2 [|] 
[V:1] c2B2c4 | 
[V:2] F2D2CDEF | 
[V:3] D2D2E2E3 | 
[V:4] F,2G,2C,4 [|] 
[V:1] c2>B2A2A2 | 
[V:2] G2FGAGFE | 
[V:3] DC2D3E | 
[V:4] CB,A,G,F,E,D,C, [|] 
[V:1] d2d2c4 | 
[V:2] F2>G2A3G | 
[V:3] F2F2C4 | 
[V:4] B,,C,D,E,F,4 [|] 
[V:1] B2>A2G2F2 | 
[V:2] F2G4C2 | 
[V:3] D2B,2C2A,2 | 
[V:4] B,A,G,F,E,2F,2 [|] 
[V:1] F2E2F4 |]  
[V:2] D2C2C4 |]  
[V:3] B,2G,2F,4 |]  
[V:4] B,,2C,2F,4 | 


